X: 115
T: New Town of Edinburgh
B: 204 Favourite Country Dances
N: Published by Straight & Skillern, London ca.1775
F: http://imslp.org/wiki/204_Favourite_Country_Dances_(Various) p.58 #115
Z: 2014 John Chambers <jc:trillian.mit.edu>
N: The low G# in bar 1 is probably a typo; it makes more sense as a low A, as in bar 3.
M: C
L: 1/8
K: A
% - - - - - - - - - - - - - - - - - - - - - - - - -
E |\
G,EAc d/c/B/A/ GA | c/d/e c/d/e dB,B,C |\
A,EAc d/c/B/A/ GA | B/c/d B/c/d AA,A, :|
|: E |\
FEAE FEAE | C/D/E C/D/E B,BBE |\
FEAE FEAE | B,/C/D B,/C/D A,AA :|
|: d |\
c>deA GAFG | EADA B,BBd |\
c>deA fAeG | dcBA EAA :|
|: c |\
Aceg agfe | dcBA GBBd |\
Aaga eaca | Ba g/a/b aAA :|
% - - - - - - - - - - - - - - - - - - - - - - - - -
%%begintext align
%% Cast of 2 Cu. cast up again .| cross over 2 Cu.lead up and
%% cast off :| Set corners and turn .|: lead thro the Bottom &
%% cast up Right and Left at top
%%endtext

%%sep 1 1 500
%%sep 1 1 500
